static/logos/cron-wordmark-color.svg

<svg width="100" height="32" viewBox="0 0 100 32" fill="none" xmlns="http://www.w3.org/2000/svg">
<g clip-path="url(#clip0_1_3135)">
<path d="M14.4235 15.7895C14.4235 28.5864 14.4236 31.5789 14.4236 31.5789C13.3618 31.5789 8.96167 30.132 7.40598 29.1412C3.19589 26.4588 0.325281 21.5759 0.0287899 16.5939C-0.397965 9.42017 3.89704 2.63158 14.4235 0V15.7895Z" fill="#FF3E00"/>
<path d="M31.5284 15.7895V31.5789H24.2915H17.0547V22.6675C17.0547 11.1728 19.2475 7.67544 23.1949 4.16667C27.1422 0.657895 31.5284 0 31.5284 0V15.7895Z" fill="#FF3E00"/>
<path fill-rule="evenodd" clip-rule="evenodd" d="M54.5866 0.729817C62.7252 3.47806 67.4068 12.0215 65.1076 19.9303C60.9747 34.1465 41.7927 35.632 35.6638 22.2101C31.694 13.5171 35.9783 4.15876 45.5397 0.635957C47.7397 -0.174131 52.041 -0.129833 54.5866 0.729817ZM48.7357 16.2355C48.6861 11.4974 48.713 6.89304 48.7279 5.03133C48.7318 4.5506 49.1227 4.16666 49.6034 4.16666H49.829H50.169C50.6535 4.16666 51.0462 4.5594 51.0462 5.04385V15.7895V26.5351C51.0462 27.0196 50.6535 27.4123 50.169 27.4123H49.9497H49.7213C49.2405 27.4123 48.8492 27.0252 48.8441 26.5443L48.7357 16.2355Z" fill="#FF3E00"/>
<path d="M88.7937 0.729825C93.2112 2.22193 96.5139 5.18246 98.4981 9.42982C99.7121 12.0298 99.7288 12.1785 99.8595 21.8202L99.9928 31.5789H92.7384H85.4847L85.3689 17.8728L85.2605 5.03645C85.2565 4.55489 84.8649 4.16667 84.3833 4.16667H84.1567H83.93C83.4484 4.16667 83.0569 4.55489 83.0528 5.03645L82.9444 17.8728L82.8286 31.5789H75.5979H68.3672V15.7895V0H77.4996C84.8593 0 87.0514 0.141667 88.7937 0.729825Z" fill="#FF3E00"/>
</g>
<defs>
<clipPath id="clip0_1_3135">
<rect width="100" height="31.5789" fill="white"/>
</clipPath>
</defs>
</svg>

<svg xmlns="http://www.w3.org/2000/svg" width="200" height="64" fill="none" viewBox="0 0 100 32"><g fill="#FF3E00" clip-path="url(#a)"><path d="M14.424 15.79v15.789c-1.062 0-5.462-1.447-7.018-2.438C3.196 26.46.326 21.576.029 16.594-.398 9.42 3.897 2.632 14.424 0v15.79ZM31.528 15.79v15.789H17.055v-8.912c0-11.494 2.192-14.992 6.14-18.5C27.142.657 31.528 0 31.528 0v15.79Z"/><path fill-rule="evenodd" d="M54.587.73c8.138 2.748 12.82 11.291 10.52 19.2-4.132 14.217-23.314 15.702-29.443 2.28-3.97-8.693.314-18.051 9.876-21.574 2.2-.81 6.501-.766 9.047.094Zm-5.851 15.505c-.05-4.738-.023-9.342-.008-11.204a.872.872 0 0 1 .875-.864H50.17c.485 0 .877.392.877.877v21.491a.877.877 0 0 1-.877.877h-.448a.877.877 0 0 1-.877-.868l-.108-10.309Z" clip-rule="evenodd"/><path d="M88.794.73c4.417 1.492 7.72 4.452 9.704 8.7 1.214 2.6 1.23 2.748 1.361 12.39l.134 9.759H85.485l-.116-13.706-.109-12.837a.877.877 0 0 0-.877-.87h-.453a.877.877 0 0 0-.877.87l-.109 12.837-.115 13.706H68.368V0H77.5c7.36 0 9.551.142 11.294.73Z"/></g><defs><clipPath id="a"><path fill="#fff" d="M0 0h100v31.579H0z"/></clipPath></defs></svg>
